src/icons/services/videography.svg

<svg width="52" height="52" viewBox="0 0 52 52" fill="none" xmlns="http://www.w3.org/2000/svg">
<path d="M49.3188 22.5062C48.5063 21.8562 47.4501 21.6124 46.3938 21.8562L38.6751 23.5624C38.4313 21.0437 36.2376 19.0124 33.6376 19.0124H31.4438C32.0126 17.9562 32.3376 16.8187 32.3376 15.5187C32.3376 11.6187 29.1688 8.36865 25.2688 8.36865C21.5313 8.36865 18.5251 11.2124 18.2001 14.8687C17.3063 12.9999 15.4376 11.6187 13.2438 11.6187C10.2376 11.6187 7.71885 14.0562 7.71885 17.1437C7.71885 17.7937 7.8001 18.3624 8.04385 19.0124H6.5001C3.7376 19.0124 1.38135 21.2874 1.38135 24.1312V38.5124C1.38135 41.2749 3.65635 43.6312 6.5001 43.6312H33.6376C36.4001 43.6312 38.7563 41.3562 38.7563 38.5124V38.1062L46.3938 39.8124C46.6376 39.8937 46.8813 39.8937 47.1251 39.8937C47.9376 39.8937 48.6688 39.6499 49.2376 39.1624C50.0501 38.5124 50.5376 37.5374 50.5376 36.4812V25.1874C50.6188 24.1312 50.1313 23.1562 49.3188 22.5062ZM25.2688 12.1062C27.1376 12.1062 28.6813 13.6499 28.6813 15.5999C28.6813 17.5499 27.1376 19.0937 25.2688 19.0937C23.4001 19.0937 21.7751 17.5499 21.7751 15.5999C21.7751 13.6499 23.4001 12.1062 25.2688 12.1062ZM19.0938 19.0124H18.4438C18.5251 18.6874 18.6063 18.3624 18.6876 18.0374C18.7688 18.3624 18.8501 18.6874 19.0938 19.0124ZM11.3751 17.2249C11.3751 16.2499 12.1876 15.3562 13.2438 15.3562C14.3001 15.3562 15.1126 16.1687 15.1126 17.2249C15.1126 18.2812 14.3001 19.0937 13.2438 19.0937C12.1876 19.0937 11.3751 18.1999 11.3751 17.2249ZM35.1001 38.4312C35.1001 39.2437 34.4501 39.8937 33.6376 39.8937H6.5001C5.6876 39.8937 5.0376 39.2437 5.0376 38.4312V24.1312C5.0376 23.3187 5.6876 22.6687 6.5001 22.6687H33.6376C34.4501 22.6687 35.1001 23.3187 35.1001 24.1312V38.4312ZM46.9626 36.1562L38.7563 34.3687V27.2999L46.9626 25.5124V36.1562Z" fill="#9D74D3"/>
</svg>

<svg xmlns="http://www.w3.org/2000/svg" width="52" height="52" fill="none"  ><path d="M49.319 22.506c-.812-.65-1.869-.894-2.925-.65l-7.719 1.706c-.244-2.519-2.437-4.55-5.038-4.55h-2.194a7.2 7.2 0 0 0 .894-3.494c0-3.9-3.169-7.15-7.069-7.15-3.737 0-6.744 2.844-7.069 6.5-.894-1.869-2.762-3.25-4.956-3.25-3.006 0-5.525 2.438-5.525 5.525 0 .65.081 1.219.325 1.869H6.5c-2.762 0-5.119 2.275-5.119 5.119v14.381c0 2.763 2.275 5.119 5.119 5.119h27.138c2.763 0 5.119-2.275 5.119-5.119v-.406l7.637 1.706c.244.081.488.081.731.081.813 0 1.544-.244 2.112-.731.813-.65 1.3-1.625 1.3-2.681V25.187c.081-1.056-.406-2.031-1.219-2.681zm-24.05-10.4c1.869 0 3.413 1.544 3.413 3.494s-1.544 3.494-3.413 3.494-3.494-1.544-3.494-3.494 1.625-3.494 3.494-3.494zm-6.175 6.906h-.65l.244-.975c.081.325.163.65.406.975zm-7.719-1.787c0-.975.813-1.869 1.869-1.869s1.869.813 1.869 1.869-.812 1.869-1.869 1.869-1.869-.894-1.869-1.869zM35.1 38.431c0 .813-.65 1.463-1.462 1.463H6.5c-.812 0-1.462-.65-1.462-1.463v-14.3c0-.812.65-1.462 1.462-1.462h27.138c.813 0 1.462.65 1.462 1.462v14.3zm11.863-2.275l-8.206-1.788V27.3l8.206-1.788v10.644z" fill="#9d74d3"/></svg>
